X: 12
T: Bunker Hill
Z: jmeme
S: https://thesession.org/tunes/207#setting49949
R: reel
M: 4/4
L: 1/8
K: Dmix
|: GEE/E/E D3G|E/F/G AB cd/c/Bc|AA/A/AG EGG/G/G|ABcA B/c/dcA|
GEE/E/E D3G|E/F/G AB cd/c/Bc|cBc/B/A BAGE|ABcA B/c/dcA :|
|: Gcc/c/c ecc/c/c|Gcc/c/c cAGc|Add/d/A [fa]3d|Add/d/A cBAG|
E/F/GAB cAdB|c/B/AdB cd/c/Bc|cBc/B/A BAGE|1 ABcA B/c/dcA :|2 ABcA a3g||
|: fdd/d/d fdad|fadf aa/a/gf|gee/e/e gebe|gbeg bb/b/ag|
fdd/d/d ABcA|dcAB [ce]2Bc|cBc/B/A BAGE|1 ABcA dgag :|2 ABcA B/c/dcA ||

